_prebuild/svg/twitter.svg

<?xml version="1.0" encoding="UTF-8" standalone="no"?>
<svg width="21px" height="18px" viewBox="0 0 21 18" version="1.1" xmlns="http://www.w3.org/2000/svg" xmlns:xlink="http://www.w3.org/1999/xlink">
    <!-- Generator: Sketch 39 (31667) - http://www.bohemiancoding.com/sketch -->
    <title>twitter copy 2</title>
    <desc>Created with Sketch.</desc>
    <defs></defs>
    <g id="Current" stroke="none" stroke-width="1" fill="none" fill-rule="evenodd">
        <g id="Home" transform="translate(-270.000000, -1088.000000)" fill="#444444">
            <g id="Sect3-Online" transform="translate(166.000000, 1085.000000)">
                <g id="twitter-copy-2" transform="translate(104.000000, 3.000000)">
                    <path d="M18.526149,2.84573162 C19.4160944,2.28412538 20.0989611,1.39361548 20.41944,0.332803698 C19.5861948,0.85410949 18.6654341,1.23111368 17.6830428,1.43521595 C16.899102,0.551206125 15.7786582,0 14.5386512,0 C12.1597112,0 10.231907,2.03452261 10.231907,4.54355048 C10.231907,4.89975444 10.2676528,5.2468583 10.3416094,5.57836198 C6.762106,5.38855987 3.58813171,3.58153979 1.46187709,0.83070923 C1.09086107,1.50411671 0.878851911,2.28412538 0.878851911,3.11613462 C0.878851911,4.69175213 1.63937313,6.08276759 2.7955626,6.89917666 C2.08927628,6.8757764 1.42489875,6.6690741 0.843106181,6.33107035 L0.843106181,6.38697097 C0.843106181,8.58919544 2.32717028,10.4261158 4.30058109,10.8421205 C3.93819334,10.9487217 3.55854904,11.0020222 3.1641134,11.0020222 C2.88677584,11.0020222 2.61560134,10.9747219 2.35428773,10.9214213 C2.90156718,12.7258414 4.49286846,14.041456 6.37876387,14.0765564 C4.90332805,15.29597 3.04578271,16.021378 1.02799789,16.021378 C0.680401479,16.021378 0.336502905,16.0018778 0,15.9589773 C1.9068498,17.2472916 4.17115689,18 6.60433175,18 C14.5300229,18 18.8614193,11.0761231 18.8614193,5.07135635 C18.8614193,4.87375415 18.858954,4.67745197 18.8503258,4.48374982 C19.6921993,3.8428427 20.4243705,3.0420338 21,2.13072367 C20.2271527,2.49212769 19.3963726,2.73653041 18.526149,2.84573162 Z" id="Shape"></path>
                </g>
            </g>
        </g>
    </g>
</svg>

<svg xmlns="http://www.w3.org/2000/svg" width="21" height="18" viewBox="0 0 21 18"><path fill="currentColor" fill-rule="evenodd" d="M18.526 2.846c.89-.562 1.573-1.452 1.893-2.513-.835.52-1.756.898-2.738 1.102C16.9.55 15.78 0 14.54 0c-2.38 0-4.308 2.035-4.308 4.544 0 .356.036.703.11 1.034-3.58-.19-6.754-1.996-8.88-4.747-.37.675-.583 1.455-.583 2.287 0 1.576.76 2.967 1.915 3.783-.707-.024-1.37-.23-1.953-.57v.057c0 2.202 1.484 4.04 3.458 4.455-.362.107-.74.16-1.136.16-.277 0-.548-.027-.81-.08.548 1.804 2.14 3.12 4.025 3.155-1.478 1.22-3.335 1.944-5.353 1.944-.348 0-.69-.017-1.028-.06C1.906 17.247 4.17 18 6.603 18 14.53 18 18.86 11.076 18.86 5.07c0-.196 0-.393-.01-.586.842-.64 1.574-1.442 2.15-2.353-.773.363-1.604.608-2.474.717z"/></svg>
